icons/unity-panel/22x22/panel/network-receive.svg

<svg version="1.0" viewBox="0 0 13 22" xmlns="http://www.w3.org/2000/svg">
 <g transform="translate(-1,3)" fill="#fff">
  <path d="m5.5 16s-1-1-4.5-6h2v-3h1v4h-1.219c2.219 3 2.719 3.406 2.719 3.406s0.5-0.406 2.719-3.406h-1.219v-3h1v2h2c-3.5 5-4.5 6-4.5 6z"/>
  <path d="m9.5 0s1 1 4.5 6h-2v3h-1v-4h1.219c-2.219-3-2.719-3.406-2.719-3.406s-0.5 0.406-2.719 3.406h1.219v3h-1v-2h-2c3.5-5 4.5-6 4.5-6z" opacity=".5"/>
 </g>
</svg>

<?xml version="1.0" encoding="UTF-8" standalone="no"?>
<svg
   version="1.0"
   viewBox="0 0 13 22"
   id="svg6"
   sodipodi:docname="gnome-netstatus-rx.svg"
   inkscape:version="1.1.1 (3bf5ae0d25, 2021-09-20)"
   xmlns:inkscape="http://www.inkscape.org/namespaces/inkscape"
   xmlns:sodipodi="http://sodipodi.sourceforge.net/DTD/sodipodi-0.dtd"
   xmlns="http://www.w3.org/2000/svg"
   xmlns:svg="http://www.w3.org/2000/svg">
  <defs
     id="defs10" />
  <sodipodi:namedview
     id="namedview8"
     pagecolor="#ffffff"
     bordercolor="#666666"
     borderopacity="1.0"
     inkscape:pageshadow="2"
     inkscape:pageopacity="0.0"
     inkscape:pagecheckerboard="0"
     showgrid="false"
     inkscape:zoom="24.181818"
     inkscape:cx="6.5131579"
     inkscape:cy="11"
     inkscape:window-width="1852"
     inkscape:window-height="1043"
     inkscape:window-x="1434"
     inkscape:window-y="0"
     inkscape:window-maximized="1"
     inkscape:current-layer="svg6" />
  <g
     fill="#808080"
     id="g6"
     transform="translate(-1,3)"
     style="fill:#ffffff">
    <path
       d="m 5.5,16 c 0,0 -1,-1 -4.5,-6 H 3 V 7 h 1 v 4 H 2.781 C 5,14 5.5,14.406 5.5,14.406 5.5,14.406 6,14 8.219,11 H 7 V 8 h 1 v 2 h 2 c -3.5,5 -4.5,6 -4.5,6 z"
       id="path2"
       style="fill:#ffffff" />
    <path
       d="m 9.5,0 c 0,0 1,1 4.5,6 H 12 V 9 H 11 V 5 h 1.219 C 10,2 9.5,1.594 9.5,1.594 9.5,1.594 9,2 6.781,5 H 8 V 8 H 7 V 6 H 5 C 8.5,1 9.5,0 9.5,0 Z"
       opacity="0.5"
       id="path4"
       style="fill:#ffffff" />
  </g>
</svg>
